src/assets/images/havestalogo.svg

<svg width="28" height="24" viewBox="0 0 28 24" fill="none" xmlns="http://www.w3.org/2000/svg">
<path d="M18.4328 0C13.4276 0 8.88712 1.99563 5.56687 5.23386C4.87598 5.90983 4.23232 6.638 3.65078 7.41836C1.35941 10.4926 0 14.3049 0 18.4328V23.704H5.27362C11.8992 23.704 17.7096 20.2048 20.9578 14.9535C20.9628 14.9486 20.9652 14.9461 20.9677 14.9411C21.4996 14.0787 21.9618 13.1716 22.347 12.2248H22.357C22.7099 11.2878 22.9957 10.3062 23.2243 9.40404C23.269 9.23008 23.3088 9.06357 23.3486 8.89954C23.3486 8.89954 23.3486 8.89706 23.3511 8.89457C23.5847 7.72652 23.704 6.51623 23.704 5.2761V0H18.4328ZM19.6357 9.77434C19.2579 10.6715 18.8131 11.5314 18.3036 12.349C15.0529 17.5829 9.25493 21.0671 2.63929 21.0671C2.63929 16.5813 4.23977 12.4733 6.89894 9.2773C7.25681 8.84487 7.63706 8.42984 8.03221 8.03221C8.32795 7.73895 8.63114 7.45315 8.94676 7.17978C12.1875 4.34664 16.4248 2.63432 21.0671 2.63432C21.0671 5.16427 20.5577 7.57741 19.6332 9.77185L19.6357 9.77434Z" fill="#55BB7A"/>
<path d="M27.6067 10.7038C27.5222 10.9971 25.293 12.4087 22.3555 12.2272C22.7084 11.2903 22.9942 10.3087 23.2228 9.40653L25.5365 8.50439L27.6067 10.7063V10.7038Z" fill="#F2C15B"/>
</svg>

<svg xmlns="http://www.w3.org/2000/svg" fill="none" viewBox="0 0 28 24"><path fill="#55bb7a" d="M18.43 0A18.4 18.4 0 0 0 5.57 5.23 18.4 18.4 0 0 0 0 18.43v5.27h5.27c6.63 0 12.44-3.5 15.69-8.75q.8-1.3 1.39-2.72a27 27 0 0 0 .87-2.83l.13-.5a18 18 0 0 0 .35-3.62V0zm1.2 9.77a18.4 18.4 0 0 1-17 11.3c0-4.49 1.6-8.6 4.27-11.8q.54-.64 1.13-1.24.45-.44.92-.85a18.4 18.4 0 0 1 12.12-4.55c0 2.53-.51 4.95-1.44 7.14"/><path fill="#f2c15b" d="M27.6 10.7c-.08.3-2.3 1.7-5.24 1.53a27 27 0 0 0 .86-2.82l2.32-.9z"/></svg>
